img/bazaar.svg

<svg width="288" height="288" xmlns="http://www.w3.org/2000/svg" xmlns:xlink="http://www.w3.org/1999/xlink" xmlns:svgjs="http://svgjs.com/svgjs"><svg xmlns="http://www.w3.org/2000/svg" width="288" height="288" viewBox="0 0 24 24"><path fill="none" d="M0 0h24v24H0z"/><path d="M21.9 8.89l-1.05-4.37c-.22-.9-1-1.52-1.91-1.52H5.05c-.9 0-1.69.63-1.9 1.52L2.1 8.89c-.24 1.02-.02 2.06.62 2.88.08.11.19.19.28.29V19c0 1.1.9 2 2 2h14c1.1 0 2-.9 2-2v-6.94c.09-.09.2-.18.28-.28.64-.82.87-1.87.62-2.89zm-2.99-3.9l1.05 4.37c.1.42.01.84-.25 1.17-.14.18-.44.47-.94.47-.61 0-1.14-.49-1.21-1.14L16.98 5l1.93-.01zM13 5h1.96l.54 4.52c.05.39-.07.78-.33 1.07-.22.26-.54.41-.95.41-.67 0-1.22-.59-1.22-1.31V5zM8.49 9.52L9.04 5H11v4.69c0 .72-.55 1.31-1.29 1.31-.34 0-.65-.15-.89-.41a1.42 1.42 0 01-.33-1.07zm-4.45-.16L5.05 5h1.97l-.58 4.86c-.08.65-.6 1.14-1.21 1.14-.49 0-.8-.29-.93-.47-.27-.32-.36-.75-.26-1.17zM5 19v-6.03c.08.01.15.03.23.03.87 0 1.66-.36 2.24-.95.6.6 1.4.95 2.31.95.87 0 1.65-.36 2.23-.93.59.57 1.39.93 2.29.93.84 0 1.64-.35 2.24-.95.58.59 1.37.95 2.24.95.08 0 .15-.02.23-.03V19H5z" fill="#fff" class="color000 svgShape"/></svg></svg>

<svg id="SvgjsSvg1006" width="288" height="288" xmlns="http://www.w3.org/2000/svg" version="1.1" xmlns:xlink="http://www.w3.org/1999/xlink" xmlns:svgjs="http://svgjs.com/svgjs"><defs id="SvgjsDefs1007"></defs><g id="SvgjsG1008" transform="matrix(1,0,0,1,0,0)"><svg xmlns="http://www.w3.org/2000/svg" width="288" height="288" enable-background="new 0 0 24 24" viewBox="0 0 24 24"><rect width="24" height="24" fill="none"></rect><path d="M21.9,8.89l-1.05-4.37c-0.22-0.9-1-1.52-1.91-1.52H5.05C4.15,3,3.36,3.63,3.15,4.52L2.1,8.89 c-0.24,1.02-0.02,2.06,0.62,2.88C2.8,11.88,2.91,11.96,3,12.06V19c0,1.1,0.9,2,2,2h14c1.1,0,2-0.9,2-2v-6.94 c0.09-0.09,0.2-0.18,0.28-0.28C21.92,10.96,22.15,9.91,21.9,8.89z M18.91,4.99l1.05,4.37c0.1,0.42,0.01,0.84-0.25,1.17 C19.57,10.71,19.27,11,18.77,11c-0.61,0-1.14-0.49-1.21-1.14L16.98,5L18.91,4.99z M13,5h1.96l0.54,4.52 c0.05,0.39-0.07,0.78-0.33,1.07C14.95,10.85,14.63,11,14.22,11C13.55,11,13,10.41,13,9.69V5z M8.49,9.52L9.04,5H11v4.69 C11,10.41,10.45,11,9.71,11c-0.34,0-0.65-0.15-0.89-0.41C8.57,10.3,8.45,9.91,8.49,9.52z M4.04,9.36L5.05,5h1.97L6.44,9.86 C6.36,10.51,5.84,11,5.23,11c-0.49,0-0.8-0.29-0.93-0.47C4.03,10.21,3.94,9.78,4.04,9.36z M5,19v-6.03C5.08,12.98,5.15,13,5.23,13 c0.87,0,1.66-0.36,2.24-0.95c0.6,0.6,1.4,0.95,2.31,0.95c0.87,0,1.65-0.36,2.23-0.93c0.59,0.57,1.39,0.93,2.29,0.93 c0.84,0,1.64-0.35,2.24-0.95c0.58,0.59,1.37,0.95,2.24,0.95c0.08,0,0.15-0.02,0.23-0.03V19H5z" fill="#ffffff" class="color000 svgShape"></path></svg></g></svg>
